images/icons/links/youtube.svg

<svg width="30" height="30" viewBox="0 0 30 30" fill="none" xmlns="http://www.w3.org/2000/svg">
<circle cx="15" cy="15" r="15" fill="#F40000"/>
<path d="M21.5348 14.1848C21.5348 13.8939 21.4864 13.5545 21.4864 13.1667C21.4379 12.7788 21.3894 12.3909 21.3409 12.0515C21.2439 11.6636 21.0985 11.3727 20.8076 11.1303C20.5652 10.8879 20.2258 10.7424 19.8864 10.6939C18.7712 10.5485 17.1227 10.5 14.8924 10.5C12.6621 10.5 10.9651 10.5485 9.89848 10.6939C9.55909 10.7424 9.2197 10.8879 8.97727 11.1303C8.73485 11.3727 8.54091 11.6636 8.44394 12.0515C8.34697 12.3909 8.29849 12.7303 8.29849 13.1667C8.25 13.5545 8.25 13.8939 8.25 14.1848C8.25 14.4758 8.25 14.8151 8.25 15.3C8.25 15.7848 8.25 16.1727 8.25 16.4152C8.25 16.7061 8.29849 17.0455 8.29849 17.4333C8.34697 17.8212 8.39545 18.2091 8.44394 18.5485C8.54091 18.9364 8.68636 19.2273 8.97727 19.4697C9.2197 19.7121 9.55909 19.8576 9.89848 19.9061C11.0136 20.0515 12.6621 20.1 14.8924 20.1C17.1227 20.1 18.8197 20.0515 19.8864 19.9061C20.2258 19.8576 20.5652 19.7121 20.8076 19.4697C21.05 19.2273 21.2439 18.9364 21.3409 18.5485C21.4379 18.2091 21.4864 17.8697 21.4864 17.4333C21.5349 17.0455 21.5348 16.7061 21.5348 16.4152C21.5348 16.1242 21.5348 15.7848 21.5348 15.3C21.5348 14.8151 21.5348 14.4273 21.5348 14.1848ZM17.4621 15.6879L13.6318 18.0636C13.5833 18.1121 13.4864 18.1606 13.3894 18.1606C13.2924 18.1606 13.2439 18.1606 13.147 18.1121C13.0015 18.0152 12.9045 17.8697 12.9045 17.6758V12.8758C12.9045 12.6818 13.0015 12.5364 13.147 12.4394C13.2924 12.3424 13.4864 12.3424 13.6318 12.4394L17.4621 14.8151C17.6076 14.9121 17.7045 15.0576 17.7045 15.203C17.7045 15.3485 17.6076 15.5909 17.4621 15.6879Z" fill="white"/>
</svg>

<svg width="30" height="30" fill="none" xmlns="http://www.w3.org/2000/svg"><circle cx="15" cy="15" r="15" fill="#F40000"/><path d="M21.535 14.185c0-.291-.049-.63-.049-1.018a67.126 67.126 0 00-.145-1.115c-.097-.388-.242-.68-.533-.922a1.638 1.638 0 00-.922-.436c-1.115-.146-2.763-.194-4.994-.194-2.23 0-3.927.049-4.994.194a1.634 1.634 0 00-.92.436 1.935 1.935 0 00-.534.921c-.097.34-.146.68-.146 1.116-.048.388-.048.727-.048 1.018v2.23c0 .291.048.63.048 1.018.049.388.097.776.146 1.116.097.387.242.678.533.92.243.243.582.389.921.437 1.116.146 2.764.194 4.994.194s3.928-.049 4.994-.194c.34-.048.68-.194.922-.436.242-.243.436-.534.533-.921.097-.34.145-.68.145-1.116.049-.387.049-.727.049-1.018v-2.23zm-4.073 1.503l-3.83 2.376a.37.37 0 01-.243.097c-.097 0-.145 0-.242-.049a.509.509 0 01-.242-.436v-4.8a.51.51 0 01.242-.437.44.44 0 01.485 0l3.83 2.376c.146.097.242.243.242.388 0 .146-.096.388-.242.485z" fill="#fff"/></svg>
